img/ingridients-icons/cocoa-beans.svg

<svg width="24" height="19" viewBox="0 0 24 19" fill="none" xmlns="http://www.w3.org/2000/svg">
<path d="M23.6531 9.80156C23.2687 8.74688 22.6031 7.84219 21.7265 7.18594C21.1031 6.72188 20.3953 6.40313 19.6312 6.23906C19.7953 4.73438 19.3265 3.17344 18.3468 1.9875C17.2875 0.707813 15.764 0 14.0578 0H13.7812C12.5859 0 11.4281 0.421875 10.4297 1.22344C10.2562 1.35938 10.05 1.43438 9.82966 1.43438C9.60935 1.43438 9.4031 1.35938 9.22966 1.22344C8.23591 0.421875 7.0781 0 5.88279 0H5.60623C4.37342 0 3.22029 0.375 2.27342 1.07813C1.39217 1.73438 0.726543 2.63438 0.346856 3.69375C-0.0328314 4.74375 -0.103144 5.85938 0.154668 6.91875C0.426543 8.0625 1.06873 9.07969 2.01092 9.86719C2.7281 10.4672 3.5156 10.9828 4.34998 11.4C4.31717 11.9484 4.36404 12.4922 4.4906 13.0266C4.76248 14.1703 5.40467 15.1875 6.34685 15.975C8.53591 17.8031 11.3156 18.8063 14.1703 18.8063C17.025 18.8063 19.8047 17.7984 21.9937 15.975C22.9359 15.1875 23.5781 14.1703 23.85 13.0266C24.1031 11.9672 24.0375 10.8516 23.6531 9.80156ZM4.49998 10.4016C3.83435 10.0453 3.20623 9.61875 2.62029 9.13125C0.792168 7.60781 0.712481 5.48906 1.24217 4.01719C1.77654 2.53594 3.20623 0.95625 5.60154 0.95625H5.8781C6.8531 0.95625 7.80466 1.30781 8.62966 1.96875C8.96716 2.24063 9.39373 2.39063 9.82498 2.39063C10.2562 2.39063 10.6828 2.24063 11.0203 1.96875C11.8453 1.30313 12.7968 0.95625 13.7718 0.95625H14.0484C15.464 0.95625 16.725 1.5375 17.6015 2.59688C18.4172 3.58125 18.8015 4.87031 18.675 6.1125C18.5812 6.10781 18.4828 6.10313 18.3843 6.10313H18.1078C16.9125 6.10313 15.7547 6.525 14.7562 7.32656C14.5828 7.4625 14.3765 7.5375 14.1562 7.5375C13.9359 7.5375 13.7297 7.4625 13.5562 7.32656C12.5578 6.525 11.4 6.10313 10.2047 6.10313H9.9281C8.69529 6.10313 7.54685 6.47813 6.59529 7.18125C5.71404 7.8375 5.04842 8.7375 4.66873 9.79688C4.60779 9.99844 4.54685 10.2 4.49998 10.4016ZM21.3797 15.2391C19.364 16.9219 16.8 17.85 14.1703 17.85C11.5406 17.85 8.97185 16.9219 6.95623 15.2391C5.1281 13.7156 5.04842 11.5969 5.5781 10.125C6.11248 8.64375 7.54216 7.06406 9.93748 7.06406H10.214C11.189 7.06406 12.1406 7.41563 12.9656 8.07656C13.3031 8.34844 13.7297 8.49844 14.1609 8.49844C14.5922 8.49844 15.0187 8.34844 15.3562 8.07656C16.1812 7.41094 17.1328 7.06406 18.1078 7.06406H18.3843C20.7797 7.06406 22.2093 8.64844 22.7437 10.125C23.2875 11.5969 23.2078 13.7156 21.3797 15.2391Z" fill="black"/>
</svg>

<svg width="24" height="19" fill="none" xmlns="http://www.w3.org/2000/svg"><path d="M23.653 9.802a5.68 5.68 0 00-1.926-2.616 5.381 5.381 0 00-2.096-.947 5.761 5.761 0 00-1.284-4.252C17.287.707 15.764 0 14.057 0h-.276c-1.195 0-2.353.422-3.351 1.223a.965.965 0 01-.6.211.965.965 0 01-.6-.21C8.236.421 7.078 0 5.883 0h-.277C4.373 0 3.22.375 2.273 1.078A5.592 5.592 0 00.347 3.694a5.582 5.582 0 00-.192 3.225c.272 1.144.914 2.16 1.856 2.948.717.6 1.505 1.116 2.339 1.533a5.584 5.584 0 00.14 1.627c.272 1.143.915 2.16 1.857 2.948a12.225 12.225 0 0015.647 0c.942-.787 1.584-1.805 1.856-2.948a5.583 5.583 0 00-.197-3.225zm-19.153.6a11.218 11.218 0 01-1.88-1.27C.792 7.607.712 5.488 1.242 4.016c.535-1.481 1.964-3.06 4.36-3.06h.276c.975 0 1.927.35 2.752 1.012.337.272.764.422 1.195.422.431 0 .858-.15 1.195-.422.825-.666 1.777-1.013 2.752-1.013h.276c1.416 0 2.677.582 3.554 1.64a4.796 4.796 0 011.073 3.516 5.827 5.827 0 00-.29-.009h-.277c-1.195 0-2.353.422-3.352 1.224a.965.965 0 01-.6.21.965.965 0 01-.6-.21c-.998-.802-2.156-1.224-3.351-1.224h-.277A5.554 5.554 0 006.595 7.18 5.592 5.592 0 004.67 9.797a9.69 9.69 0 00-.169.605zm16.88 4.837a11.276 11.276 0 01-7.21 2.611c-2.63 0-5.198-.928-7.214-2.61-1.828-1.524-1.908-3.643-1.378-5.115.534-1.481 1.964-3.06 4.36-3.06h.276c.975 0 1.927.35 2.752 1.012a1.92 1.92 0 001.195.421c.431 0 .858-.15 1.195-.421.825-.666 1.777-1.013 2.752-1.013h.276c2.396 0 3.825 1.584 4.36 3.061.544 1.472.464 3.59-1.364 5.114z" fill="#000"/></svg>
